; generated by Slic3r 1.2.9 on 2021-09-17 at 23:46:36

; external perimeters extrusion width = 0.50mm
; perimeters extrusion width = 0.85mm
; infill extrusion width = 1.02mm
; solid infill extrusion width = 0.85mm
; top infill extrusion width = 0.85mm

M107
M190 S60 ; set bed temperature
M104 S210 ; set temperature
G28 ; home all axes
G1 Z5 F5000 ; lift nozzle

M109 S210 ; wait for temperature to be reached
G21 ; set units to millimeters
G90 ; use absolute coordinates
M82 ; use absolute distances for extrusion
G92 E0
G1 Z0.200 F7800.000
G1 E-2.00000 F2400.00000
G92 E0
G1 X79.994 Y81.541 F7800.000
G1 E2.00000 F2400.00000
G1 X80.431 Y81.146 E2.00595 F1800.000
G1 X80.906 Y80.757 E2.01215
G1 X81.379 Y80.406 E2.01810
G1 X81.896 Y80.060 E2.02439
G1 X82.401 Y79.757 E2.03034
G1 X82.959 Y79.459 E2.03674
G1 X83.491 Y79.208 E2.04268
G1 X84.055 Y78.974 E2.04884
G1 X84.609 Y78.775 E2.05479
G1 X85.214 Y78.591 E2.06117
G1 X85.785 Y78.448 E2.06712
G1 X86.401 Y78.326 E2.07347
G1 X87.336 Y78.198 E2.08301
G1 X109.336 Y76.198 E2.30620
G1 X110.187 Y76.151 E2.31481
G1 X110.813 Y76.151 E2.32113
G1 X111.402 Y76.180 E2.32708 F1800.000
G1 X112.016 Y76.240 E2.33332
G1 X112.599 Y76.326 E2.33928
G1 X113.215 Y76.448 E2.34562
G1 X113.786 Y76.591 E2.35157
G1 X114.391 Y76.775 E2.35796
G1 X114.945 Y76.974 E2.36390
G1 X115.509 Y77.208 E2.37007
G1 X116.041 Y77.459 E2.37601
G1 X116.599 Y77.757 E2.38240
G1 X117.104 Y78.060 E2.38835
G1 X117.621 Y78.406 E2.39464
G1 X118.094 Y78.757 E2.40059
G1 X118.569 Y79.146 E2.40679
G1 X119.006 Y79.541 E2.41275
G1 X119.459 Y79.994 E2.41922
G1 X119.854 Y80.431 E2.42517
G1 X120.243 Y80.906 E2.43137
G1 X120.594 Y81.379 E2.43732
G1 X120.940 Y81.896 E2.44361
G1 X121.243 Y82.401 E2.44956
G1 X121.541 Y82.959 E2.45596
G1 X121.792 Y83.491 E2.46190
G1 X122.026 Y84.055 E2.46806
G1 X122.225 Y84.610 E2.47402
G1 X122.409 Y85.214 E2.48040
G1 X122.552 Y85.785 E2.48634
G1 X122.674 Y86.401 E2.49269
G1 X122.760 Y86.985 E2.49865
G1 X122.820 Y87.599 E2.50489
G1 X123.851 Y110.211 E2.73358
G1 X123.849 Y110.813 E2.73967
G1 X123.820 Y111.401 E2.74561
G1 X123.760 Y112.016 E2.75185
G1 X123.674 Y112.599 E2.75781
G1 X123.552 Y113.215 E2.76416
G1 X123.408 Y113.787 E2.77011
G1 X123.225 Y114.391 E2.77649
G1 X123.026 Y114.945 E2.78244
G1 X122.792 Y115.509 E2.78860
G1 X122.541 Y116.041 E2.79455
G1 X122.238 Y116.607 E2.80104
G1 X121.940 Y117.104 E2.80689
G1 X121.594 Y117.621 E2.81318
G1 X121.243 Y118.095 E2.81914
G1 X120.854 Y118.569 E2.82533
G1 X120.459 Y119.006 E2.83128
G1 X120.006 Y119.459 E2.83776
G1 X119.569 Y119.854 E2.84371
G1 X119.094 Y120.243 E2.84991
G1 X118.621 Y120.594 E2.85586
G1 X118.104 Y120.940 E2.86215
G1 X117.599 Y121.243 E2.86810
G1 X117.041 Y121.541 E2.87449
G1 X116.509 Y121.792 E2.88043
G1 X115.945 Y122.026 E2.88660
G1 X115.391 Y122.225 E2.89254
G1 X114.787 Y122.409 E2.89893
G1 X114.215 Y122.552 E2.90488
G1 X113.599 Y122.674 E2.91123
G1 X113.016 Y122.760 E2.91718
G1 X112.401 Y122.820 E2.92342
G1 X89.789 Y123.851 E3.15212
G1 X89.187 Y123.849 E3.15820
G1 X88.599 Y123.820 E3.16415
G1 X87.985 Y123.760 E3.17038
G1 X87.401 Y123.674 E3.17634
G1 X86.785 Y123.552 E3.18269
G1 X86.214 Y123.409 E3.18864
G1 X85.609 Y123.225 E3.19502
G1 X85.055 Y123.026 E3.20097
G1 X84.491 Y122.792 E3.20713
G1 X83.959 Y122.541 E3.21308
G1 X83.402 Y122.244 E3.21946
G1 X82.896 Y121.940 E3.22542
G1 X82.379 Y121.594 E3.23171
G1 X81.906 Y121.243 E3.23766
G1 X81.431 Y120.854 E3.24386
G1 X80.994 Y120.459 E3.24981
G1 X80.541 Y120.006 E3.25629
G1 X80.146 Y119.569 E3.26224
G1 X79.757 Y119.094 E3.26844
G1 X79.406 Y118.621 E3.27439
G1 X79.060 Y118.104 E3.28068
G1 X78.757 Y117.599 E3.28663
G1 X78.459 Y117.041 E3.29302
G1 X78.208 Y116.509 E3.29897
G1 X77.974 Y115.945 E3.30513
G1 X77.775 Y115.391 E3.31108
G1 X77.591 Y114.786 E3.31746
G1 X77.448 Y114.215 E3.32342
G1 X77.326 Y113.599 E3.32976
G1 X77.240 Y113.016 E3.33572
G1 X77.180 Y112.401 E3.34196
G1 X77.150 Y111.802 E3.34801
G1 X76.150 Y90.802 E3.56042
G1 X76.151 Y90.187 E3.56664
G1 X76.180 Y89.599 E3.57259
G1 X76.240 Y88.984 E3.57883
G1 X76.326 Y88.401 E3.58478
G1 X76.448 Y87.785 E3.59113
G1 X76.591 Y87.214 E3.59708
G1 X76.775 Y86.610 E3.60346
G1 X76.974 Y86.055 E3.60941
G1 X77.208 Y85.491 E3.61558
G1 X77.459 Y84.958 E3.62153
G1 X77.757 Y84.401 E3.62791
G1 X78.060 Y83.896 E3.63387
G1 X78.406 Y83.379 E3.64015
G1 X78.757 Y82.906 E3.64610
G1 X79.146 Y82.431 E3.65230
G1 X79.541 Y81.994 E3.65825
G1 X79.941 Y81.594 E3.66397
G1 E1.66397 F2400.00000
G92 E0
G1 X106.092 Y105.149 F7800.000
G1 E2.00000 F2400.00000
G1 X106.645 Y104.644 E2.00757 F1800.000
G1 X107.306 Y104.153 E2.01589
G1 X107.950 Y103.772 E2.02345
G1 X108.624 Y103.458 E2.03096
G1 X109.329 Y103.209 E2.03851
G1 X110.055 Y103.031 E2.04607
G1 X110.794 Y102.926 E2.05360
G1 X111.589 Y102.896 E2.06164
G1 X112.284 Y102.934 E2.06868 F1800.000
G1 X113.023 Y103.047 E2.07623
G1 X113.671 Y103.209 E2.08298
G1 X114.376 Y103.458 E2.09053
G1 X115.120 Y103.810 E2.09885
G1 X115.759 Y104.197 E2.10640
G1 X116.355 Y104.644 E2.11392
G1 X116.851 Y105.092 E2.12067
G1 X117.356 Y105.645 E2.12825
G1 X117.803 Y106.241 E2.13577
G1 X118.190 Y106.880 E2.14332
G1 X118.513 Y107.553 E2.15086
G1 X118.768 Y108.253 E2.15838
G1 X118.969 Y109.055 E2.16674
G1 X119.074 Y109.794 E2.17428
G1 X119.107 Y110.540 E2.18182
G1 X119.066 Y111.284 E2.18935
G1 X118.969 Y111.945 E2.19610
G1 X118.768 Y112.748 E2.20446
G1 X118.513 Y113.447 E2.21198
G1 X118.191 Y114.120 E2.21953
G1 X117.847 Y114.693 E2.22628
G1 X117.405 Y115.295 E2.23382
G1 X116.851 Y115.908 E2.24217
G1 X116.295 Y116.405 E2.24970
G1 X115.693 Y116.847 E2.25724
G1 X115.120 Y117.190 E2.26399
G1 X114.447 Y117.513 E2.27154
G1 X113.671 Y117.791 E2.27986
G1 X112.945 Y117.969 E2.28742
G1 X112.206 Y118.074 E2.29496
G1 X111.460 Y118.107 E2.30250
G1 X110.716 Y118.066 E2.31003
G1 X110.055 Y117.969 E2.31678
G1 X109.329 Y117.791 E2.32433
G1 X108.625 Y117.542 E2.33188
G1 X107.950 Y117.228 E2.33940
G1 X107.241 Y116.803 E2.34775
G1 X106.645 Y116.356 E2.35527
G1 X106.149 Y115.908 E2.36203
G1 X105.644 Y115.355 E2.36960
G1 X105.197 Y114.759 E2.37712
G1 X104.772 Y114.050 E2.38547
G1 X104.458 Y113.375 E2.39299
G1 X104.209 Y112.671 E2.40054
G1 X104.047 Y112.023 E2.40729
G1 X103.934 Y111.284 E2.41484
G1 X103.893 Y110.540 E2.42237
G1 X103.926 Y109.794 E2.42992
G1 X104.031 Y109.055 E2.43745
G1 X104.197 Y108.377 E2.44451
G1 X104.487 Y107.553 E2.45333
G1 X104.810 Y106.880 E2.46088
G1 X105.153 Y106.307 E2.46763
G1 X105.595 Y105.705 E2.47516
G1 X106.042 Y105.205 E2.48194
G1 X106.351 Y105.396 F7800.000
G1 X106.878 Y104.915 E2.48915 F1800.000
G1 X107.498 Y104.455 E2.49695
G1 X108.111 Y104.091 E2.50415
G1 X108.753 Y103.791 E2.51131
G1 X109.424 Y103.553 E2.51851
G1 X110.116 Y103.383 E2.52570
G1 X110.820 Y103.282 E2.53289
G1 X111.531 Y103.250 E2.54008
G1 X112.240 Y103.288 E2.54726 F1800.000
G1 X112.945 Y103.395 E2.55445
G1 X113.635 Y103.571 E2.56165
G1 X114.247 Y103.791 E2.56822
G1 X114.944 Y104.120 E2.57601
G1 X115.553 Y104.489 E2.58320
G1 X116.122 Y104.915 E2.59038
G1 X116.604 Y105.351 E2.59695
G1 X117.085 Y105.878 E2.60416
G1 X117.511 Y106.447 E2.61134
G1 X117.880 Y107.056 E2.61853
G1 X118.209 Y107.753 E2.62632
G1 X118.447 Y108.424 E2.63352
G1 X118.605 Y109.055 E2.64009
G1 X118.712 Y109.760 E2.64729
G1 X118.750 Y110.469 E2.65447
G1 X118.712 Y111.240 E2.66227
G1 X118.605 Y111.945 E2.66946
G1 X118.447 Y112.576 E2.67604
G1 X118.209 Y113.247 E2.68323
G1 X117.909 Y113.889 E2.69040
G1 X117.511 Y114.553 E2.69822
G1 X117.085 Y115.122 E2.70539
G1 X116.604 Y115.649 E2.71260
G1 X116.075 Y116.124 E2.71978
G1 X115.502 Y116.545 E2.72697
G1 X114.944 Y116.880 E2.73354
G1 X114.302 Y117.186 E2.74073
G1 X113.576 Y117.447 E2.74853
G1 X112.884 Y117.617 E2.75573
G1 X112.180 Y117.718 E2.76291
G1 X111.469 Y117.750 E2.77010
G1 X110.760 Y117.712 E2.77728
G1 X110.116 Y117.617 E2.78385
G1 X109.424 Y117.447 E2.79105
G1 X108.753 Y117.209 E2.79824
G1 X108.110 Y116.909 E2.80541
G1 X107.447 Y116.511 E2.81323
G1 X106.878 Y116.085 E2.82040
G1 X106.396 Y115.649 E2.82698
G1 X105.915 Y115.122 E2.83419
G1 X105.489 Y114.553 E2.84136
G1 X105.091 Y113.890 E2.84918
G1 X104.791 Y113.247 E2.85635
G1 X104.553 Y112.576 E2.86354
G1 X104.395 Y111.945 E2.87011
G1 X104.288 Y111.240 E2.87731
G1 X104.250 Y110.531 E2.88449
G1 X104.282 Y109.820 E2.89168
G1 X104.383 Y109.116 E2.89886
G1 X104.543 Y108.464 E2.90565
G1 X104.814 Y107.698 E2.91385
G1 X105.120 Y107.056 E2.92104
G1 X105.455 Y106.498 E2.92762
G1 X105.876 Y105.925 E2.93480
G1 X106.301 Y105.451 E2.94123
G1 X106.610 Y105.642 F7800.000
G1 X107.111 Y105.185 E2.94808 F1800.000
G1 X107.689 Y104.757 E2.95534
G1 X108.271 Y104.410 E2.96219
G1 X108.882 Y104.124 E2.96901
G1 X109.520 Y103.897 E2.97584
G1 X110.177 Y103.735 E2.98268
G1 X110.846 Y103.638 E2.98952
G1 X111.554 Y103.609 E2.99667
G1 X112.197 Y103.643 E3.00318 F1800.000
G1 X112.866 Y103.744 E3.01002
G1 X113.523 Y103.910 E3.01686
G1 X114.118 Y104.124 E3.02325
G1 X114.768 Y104.431 E3.03051
G1 X115.347 Y104.781 E3.03735
G1 X115.889 Y105.185 E3.04417
G1 X116.358 Y105.610 E3.05057
G1 X116.815 Y106.111 E3.05742
G1 X117.219 Y106.653 E3.06425
G1 X117.569 Y107.232 E3.07108
G1 X117.859 Y107.842 E3.07792
G1 X118.090 Y108.477 E3.08474
G1 X118.265 Y109.177 E3.09203
G1 X118.362 Y109.846 E3.09886
G1 X118.393 Y110.522 E3.10569
G1 X118.357 Y111.197 E3.11252
G1 X118.265 Y111.823 E3.11892
G1 X118.090 Y112.523 E3.12621
G1 X117.860 Y113.158 E3.13303
G1 X117.569 Y113.768 E3.13986
G1 X117.243 Y114.311 E3.14625
G1 X116.842 Y114.855 E3.15309
G1 X116.358 Y115.390 E3.16037
G1 X115.855 Y115.842 E3.16720
G1 X115.311 Y116.243 E3.17403
G1 X114.768 Y116.569 E3.18043
G1 X114.158 Y116.859 E3.18726
G1 X113.480 Y117.103 E3.19453
G1 X112.823 Y117.265 E3.20137
G1 X112.154 Y117.362 E3.20821
G1 X111.478 Y117.393 E3.21504
G1 X110.803 Y117.357 E3.22187
G1 X110.177 Y117.265 E3.22826
G1 X109.520 Y117.103 E3.23510
G1 X108.882 Y116.876 E3.24194
G1 X108.271 Y116.590 E3.24876
G1 X107.653 Y116.219 E3.25604
G1 X107.111 Y115.815 E3.26287
G1 X106.642 Y115.390 E3.26926
G1 X106.185 Y114.889 E3.27611
G1 X105.781 Y114.347 E3.28294
G1 X105.410 Y113.729 E3.29022
G1 X105.124 Y113.118 E3.29704
G1 X104.897 Y112.480 E3.30388
G1 X104.744 Y111.866 E3.31027
G1 X104.643 Y111.197 E3.31711
G1 X104.607 Y110.522 E3.32394
G1 X104.638 Y109.846 E3.33078
G1 X104.735 Y109.177 E3.33761
G1 X104.897 Y108.520 E3.34445
G1 X105.141 Y107.842 E3.35172
G1 X105.431 Y107.232 E3.35855
G1 X105.757 Y106.689 E3.36495
G1 X106.158 Y106.145 E3.37178
G1 X106.560 Y105.697 E3.37785
G1 X106.869 Y105.888 F7800.000
G1 X107.344 Y105.456 E3.38434 F1800.000
G1 X107.880 Y105.058 E3.39108
G1 X108.431 Y104.729 E3.39757
G1 X109.011 Y104.457 E3.40404
G1 X109.615 Y104.242 E3.41052
G1 X110.238 Y104.087 E3.41700
G1 X110.873 Y103.995 E3.42348
G1 X111.513 Y103.964 E3.42996
G1 X112.153 Y103.997 E3.43644 F1800.000
G1 X112.788 Y104.092 E3.44292
G1 X113.385 Y104.242 E3.44914
G1 X113.989 Y104.457 E3.45562
G1 X114.592 Y104.742 E3.46236
G1 X115.142 Y105.073 E3.46884
G1 X115.656 Y105.456 E3.47531
G1 X116.112 Y105.869 E3.48153
G1 X116.544 Y106.344 E3.48802
G1 X116.927 Y106.858 E3.49450
G1 X117.258 Y107.408 E3.50098
G1 X117.543 Y108.011 E3.50772
G1 X117.758 Y108.615 E3.51420
G1 X117.908 Y109.212 E3.52041
G1 X118.003 Y109.847 E3.52690
G1 X118.036 Y110.487 E3.53338
G1 X118.003 Y111.153 E3.54012
G1 X117.908 Y111.788 E3.54661
G1 X117.758 Y112.385 E3.55282
G1 X117.543 Y112.989 E3.55930
G1 X117.271 Y113.569 E3.56577
G1 X116.927 Y114.142 E3.57252
G1 X116.544 Y114.656 E3.57900
G1 X116.112 Y115.131 E3.58549
G1 X115.636 Y115.560 E3.59197
G1 X115.120 Y115.942 E3.59845
G1 X114.592 Y116.258 E3.60466
G1 X114.013 Y116.533 E3.61114
G1 X113.385 Y116.758 E3.61788
G1 X112.762 Y116.913 E3.62436
G1 X112.127 Y117.005 E3.63085
G1 X111.487 Y117.036 E3.63732
G1 X110.847 Y117.003 E3.64380
G1 X110.238 Y116.913 E3.65002
G1 X109.615 Y116.758 E3.65650
G1 X109.011 Y116.543 E3.66298
G1 X108.431 Y116.271 E3.66945
G1 X107.858 Y115.927 E3.67620
G1 X107.344 Y115.544 E3.68268
G1 X106.888 Y115.131 E3.68890
G1 X106.456 Y114.656 E3.69539
G1 X106.073 Y114.142 E3.70186
G1 X105.729 Y113.569 E3.70861
G1 X105.457 Y112.989 E3.71508
G1 X105.242 Y112.385 E3.72156
G1 X105.092 Y111.788 E3.72778
G1 X104.997 Y111.153 E3.73426
G1 X104.964 Y110.513 E3.74074
G1 X104.995 Y109.873 E3.74722
G1 X105.087 Y109.238 E3.75370
G1 X105.236 Y108.637 E3.75995
G1 X105.467 Y107.987 E3.76692
G1 X105.742 Y107.408 E3.77340
G1 X106.058 Y106.880 E3.77962
G1 X106.440 Y106.364 E3.78610
G1 X106.818 Y105.943 E3.79182
G1 X107.128 Y106.134 F7800.000
G1 X107.577 Y105.727 E3.79795 F1800.000
G1 X108.071 Y105.360 E3.80416
G1 X108.592 Y105.048 E3.81029
G1 X109.140 Y104.790 E3.81641
G1 X109.710 Y104.586 E3.82254
G1 X110.299 Y104.439 E3.82866
G1 X110.899 Y104.351 E3.83479
G1 X111.519 Y104.322 E3.84106
G1 X112.110 Y104.352 E3.84704 F1800.000
G1 X112.710 Y104.441 E3.85317
G1 X113.290 Y104.586 E3.85921
G1 X113.860 Y104.790 E3.86533
G1 X114.416 Y105.053 E3.87154
G1 X114.936 Y105.365 E3.87767
G1 X115.423 Y105.727 E3.88379
G1 X115.866 Y106.128 E3.88983
G1 X116.273 Y106.577 E3.89597
G1 X116.635 Y107.064 E3.90209
G1 X116.947 Y107.584 E3.90822
G1 X117.206 Y108.132 E3.91434
G1 X117.412 Y108.702 E3.92046
G1 X117.561 Y109.299 E3.92668
G1 X117.649 Y109.899 E3.93281
G1 X117.679 Y110.504 E3.93893
G1 X117.649 Y111.101 E3.94497
G1 X117.561 Y111.701 E3.95110
G1 X117.412 Y112.298 E3.95731
G1 X117.206 Y112.868 E3.96344
G1 X116.947 Y113.416 E3.96956
G1 X116.635 Y113.936 E3.97568
G1 X116.279 Y114.416 E3.98172
G1 X115.866 Y114.872 E3.98794
G1 X115.416 Y115.279 E3.99407
G1 X114.929 Y115.640 E4.00020
G1 X114.416 Y115.947 E4.00623
G1 X113.868 Y116.206 E4.01236
G1 X113.290 Y116.414 E4.01857
G1 X112.701 Y116.561 E4.02469
G1 X112.101 Y116.649 E4.03082
G1 X111.496 Y116.679 E4.03695
G1 X110.890 Y116.648 E4.04307
G1 X110.299 Y116.561 E4.04911
G1 X109.710 Y116.414 E4.05524
G1 X109.140 Y116.210 E4.06137
G1 X108.592 Y115.952 E4.06748
G1 X108.064 Y115.635 E4.07370
G1 X107.584 Y115.279 E4.07974
G1 X107.134 Y114.872 E4.08587
G1 X106.727 Y114.423 E4.09200
G1 X106.365 Y113.936 E4.09812
G1 X106.048 Y113.408 E4.10434
G1 X105.790 Y112.860 E4.11046
G1 X105.586 Y112.290 E4.11658
G1 X105.439 Y111.701 E4.12271
G1 X105.352 Y111.110 E4.12875
G1 X105.321 Y110.504 E4.13488
G1 X105.351 Y109.899 E4.14100
G1 X105.439 Y109.299 E4.14713
G1 X105.582 Y108.724 E4.15311
G1 X105.794 Y108.132 E4.15947
G1 X106.048 Y107.592 E4.16550
G1 X106.360 Y107.071 E4.17163
G1 X106.721 Y106.584 E4.17775
G1 X107.077 Y106.190 E4.18312
G1 E2.18312 F2400.00000
G92 E0
G1 X109.055 Y95.969 F7800.000
G1 E2.00000 F2400.00000
G1 X108.329 Y95.791 E2.00755 F1800.000
G1 X107.625 Y95.542 E2.01510
G1 X106.950 Y95.228 E2.02262
G1 X106.306 Y94.847 E2.03018
G1 X105.705 Y94.405 E2.03771
G1 X105.150 Y93.908 E2.04525
G1 X104.644 Y93.355 E2.05282
G1 X104.197 Y92.759 E2.06034
G1 X103.810 Y92.120 E2.06789
G1 X103.487 Y91.447 E2.07544
G1 X103.197 Y90.623 E2.08426
G1 X103.031 Y89.945 E2.09131
G1 X102.926 Y89.206 E2.09885
G1 X102.893 Y88.460 E2.10639
G1 X102.934 Y87.716 E2.11393
G1 X103.047 Y86.977 E2.12148
G1 X103.232 Y86.252 E2.12904
G1 X103.487 Y85.553 E2.13656
G1 X103.810 Y84.880 E2.14410
G1 X104.197 Y84.241 E2.15165
G1 X104.644 Y83.645 E2.15917
G1 X105.092 Y83.149 E2.16592
G1 X105.645 Y82.644 E2.17349
G1 X106.241 Y82.197 E2.18102
G1 X106.880 Y81.810 E2.18856
G1 X107.553 Y81.487 E2.19611
G1 X108.252 Y81.232 E2.20363
G1 X109.055 Y81.031 E2.21199
G1 X109.794 Y80.926 E2.21953
G1 X110.540 Y80.893 E2.22707
G1 X111.284 Y80.934 E2.23460 F1800.000
G1 X112.023 Y81.047 E2.24215
G1 X112.748 Y81.232 E2.24971
G1 X113.447 Y81.487 E2.25723
G1 X114.120 Y81.810 E2.26478
G1 X114.759 Y82.197 E2.27232
G1 X115.355 Y82.644 E2.27985
G1 X115.908 Y83.149 E2.28742
G1 X116.356 Y83.645 E2.29417
G1 X116.803 Y84.241 E2.30169
G1 X117.190 Y84.880 E2.30924
G1 X117.513 Y85.553 E2.31678
G1 X117.768 Y86.253 E2.32431
G1 X117.953 Y86.977 E2.33186
G1 X118.066 Y87.716 E2.33942
G1 X118.107 Y88.460 E2.34695
G1 X118.074 Y89.206 E2.35449
G1 X117.969 Y89.945 E2.36203
G1 X117.791 Y90.671 E2.36958
G1 X117.542 Y91.376 E2.37713
G1 X117.190 Y92.120 E2.38545
G1 X116.803 Y92.759 E2.39300
G1 X116.356 Y93.355 E2.40052
G1 X115.850 Y93.908 E2.40810
G1 X115.295 Y94.405 E2.41563
