;Generated by Cura LulzBot Edition GCodeWriter Version: 3.6.25
;FLAVOR:Marlin
;TIME:908
;Filament used: 0.264828m
;Layer height: 0.25
;Generated with Cura_SteamEngine 3.6.25-9
M82 ;absolute extrusion mode
;This G-Code has been generated specifically for the LulzBot Mini 2 with SE 0.5mm Tool Head
M73 P0                  ; clear GLCD progress bar
M75 					; Start GLCD Print Timer
G26 					; clear potential 'probe fail' condition
M107 					; disable fans
M420 S0                 ; disable leveling matrix
G90 					; absolute positioning
M82 					; set extruder to absolute mode
G92 E0 					; set extruder position to 0
M140 S60.0 ; start bed heating up
G28 					; home all axes
G0 X0 Y187 Z156 F200 			; move away from endstops
M117 Mini 2 Wiping...			; progress indicator message on LCD
M109 R140 	; soften filament before retraction
G1 E-15 F75 				; retract filament
M109 R140 	; wait for extruder to reach wiping temp
G1 X45 Y176 F11520 			; move above wiper pad
G1 Z0 F1200 				; push nozzle into wiper
G1 X45 Y178 Z-.5 F4000		; wiping
G1 X55 Y176 Z-.5 F4000		; wiping
G1 X45 Y177 Z0 F4000		; wiping
G1 X55 Y176 F4000		; wiping
G1 X45 Y178 F4000		; wiping
G1 X55 Y176 F4000		; wiping
G1 X45 Y178 F4000		; wiping
G1 X55 Y176 F4000		; wiping
G1 X60 Y178 F4000		; wiping
G1 X80 Y176 F4000		; wiping
G1 X60 Y178 F4000		; wiping
G1 X80 Y176 F4000		; wiping
G1 X60 Y178 F4000		; wiping
G1 X90 Y176 F4000		; wiping
G1 X80 Y178 F4000		; wiping
G1 X100 Y176 F4000		; wiping
G1 X80 Y178 F4000		; wiping
G1 X100 Y176 F4000		; wiping
G1 X80 Y178 F4000		; wiping
G1 X100 Y176 F4000		; wiping
G1 X110 Y178 F4000		; wiping
G1 X100 Y176 F4000		; wiping
G1 X110 Y178 F4000		; wiping
G1 X100 Y176 F4000		; wiping
G1 X110 Y178 F4000		; wiping
G1 X115 Y176 Z-0.5 F1000	; wiping
G1 Z10					; raise extruder
G28 X0 Y0				; home X and Y
M109 R140	; wait for extruder to reach probe temp
M204 S300				; set probing acceleration
G29					; start auto-leveling sequence
M420 S1                     ; enable leveling matrix
M425 Z			     		; use measured Z backlash for compensation
M425 Z F0		     		; turn off measured Z backlash compensation. (if activated in the quality settings, this command will automatically be ignored)
M204 S2000				; restore standard acceleration
G1 X5 Y15 Z10 F5000			; move up off last probe point
G4 S1					; pause
M400					; wait for moves to finish
M117 Heating...				; progress indicator message on LCD
M109 R210 ; wait for extruder to reach initial printing temp
M190 R60.0 ; wait for bed to reach printing temp
G1 Z2 E0 F75				; prime tiny bit of filment into the nozzle
M117 Mini 2 Printing...		; progress indicator message on LCD

M221 S100 T0
G92 E0
G1 F600 E-1.75
;LAYER_COUNT:24
;LAYER:0
M425 F1.0
M107
G0 F2625 X56.72 Y73.582 Z0.425
;TYPE:SKIRT
G1 F600 E0
G1 F900 X58.018 Y72.655 E0.05313
G1 X58.485 Y72.371 E0.07134
G1 X58.892 Y72.191 E0.08616
G1 X60.35 Y71.65 E0.13796
G1 X61.033 Y71.468 E0.16151
G1 X61.681 Y71.359 E0.1834
G1 X62.247 Y71.307 E0.20233
G1 X63.516 Y71.288 E0.24461
G1 X63.842 Y71.298 E0.25547
G1 X65.93 Y71.449 E0.3252
G1 X71.425 Y71.639 E0.50835
G1 X76.89 Y71.518 E0.69044
G1 X80.626 Y71.276 E0.81515
G1 X81.075 Y71.274 E0.8301
G1 X86.676 Y71.584 E1.01696
G1 X92.151 Y71.617 E1.19934
G1 X99.292 Y71.289 E1.43746
G1 X99.839 Y71.304 E1.45569
G1 X100.138 Y71.346 E1.46574
G1 X101.413 Y71.579 E1.50892
G1 X102.165 Y71.8 E1.53503
G1 X103.225 Y72.236 E1.57321
G1 X103.863 Y72.573 E1.59724
G1 X104.773 Y73.173 E1.63355
G1 X105.291 Y73.585 E1.6556
G1 X106.104 Y74.357 E1.69294
G1 X106.603 Y74.938 E1.71845
G1 X107.347 Y76.01 E1.76192
G1 X107.625 Y76.481 E1.78014
G1 X107.775 Y76.825 E1.79264
G1 X108.343 Y78.332 E1.84628
G1 X108.532 Y79.031 E1.8704
G1 X108.641 Y79.677 E1.89223
G1 X108.692 Y80.23 E1.91073
G1 X108.714 Y81.393 E1.94947
G1 X108.641 Y82.208 E1.97673
G1 X108.341 Y83.691 E2.02713
G1 X108.106 Y84.437 E2.05318
G1 X107.737 Y85.289 E2.08411
G1 X107.427 Y85.863 E2.10584
G1 X106.827 Y86.773 E2.14215
G1 X106.477 Y87.224 E2.16116
G1 X105.882 Y87.882 E2.19072
G1 X105.442 Y88.297 E2.21086
G1 X104.78 Y88.826 E2.23909
G1 X104.344 Y89.126 E2.25672
G1 X99.292 Y92.105 E2.45208
G1 X94.732 Y95.111 E2.63401
G1 X90.364 Y98.36 E2.81535
G1 X86.202 Y101.836 E2.99598
G1 X81.49 Y106.257 E3.2112
G1 X81.05 Y106.611 E3.23002
G1 X79.931 Y107.381 E3.27526
G1 X79.458 Y107.658 E3.29352
G1 X79.11 Y107.808 E3.30614
G1 X77.65 Y108.35 E3.35802
G1 X76.967 Y108.532 E3.38156
G1 X76.319 Y108.641 E3.40345
G1 X75.768 Y108.692 E3.42189
G1 X74.607 Y108.714 E3.46057
G1 X73.862 Y108.654 E3.48546
G1 X72.587 Y108.421 E3.52864
G1 X71.831 Y108.199 E3.55488
G1 X70.764 Y107.759 E3.59333
G1 X70.127 Y107.421 E3.61735
G1 X69.223 Y106.824 E3.65343
G1 X68.775 Y106.477 E3.67231
G1 X68.118 Y105.883 E3.70181
G1 X67.711 Y105.452 E3.72156
G1 X67.196 Y104.812 E3.74892
G1 X66.87 Y104.335 E3.76817
G1 X63.256 Y98.071 E4.00906
G1 X60.275 Y93.515 E4.19042
G1 X57.03 Y89.119 E4.37243
G1 X55.319 Y86.985 E4.46354
G1 X55.012 Y86.54 E4.48155
G1 X54.287 Y85.307 E4.5292
G1 X53.961 Y84.589 E4.55546
G1 X53.605 Y83.518 E4.59306
G1 X53.463 Y82.939 E4.61292
G1 X53.35 Y82.247 E4.63627
G1 X53.301 Y81.693 E4.6548
G1 X53.286 Y80.577 E4.69198
G1 X53.348 Y79.85 E4.71628
G1 X53.581 Y78.581 E4.75926
G1 X53.801 Y77.831 E4.78529
G1 X54.236 Y76.774 E4.82337
G1 X54.573 Y76.137 E4.84737
G1 X55.173 Y75.227 E4.88368
G1 X55.524 Y74.774 E4.90277
G1 X56.119 Y74.117 E4.9323
G1 X56.72 Y73.582 E4.9591
G0 F2625 X57.01 Y73.989
G1 F900 X58.308 Y73.062 E5.01223
G1 X58.745 Y72.8 E5.0292
G1 X59.066 Y72.66 E5.04087
G1 X60.524 Y72.119 E5.09267
G1 X61.116 Y71.961 E5.11308
G1 X61.764 Y71.852 E5.13497
G1 X62.254 Y71.807 E5.15136
G1 X63.523 Y71.788 E5.19363
G1 X63.806 Y71.796 E5.20306
G1 X65.93 Y71.95 E5.274
G1 X71.418 Y72.139 E5.45692
G1 X76.909 Y72.018 E5.63987
G1 X80.658 Y71.775 E5.76501
G1 X81.047 Y71.773 E5.77797
G1 X86.665 Y72.083 E5.96539
G1 X92.152 Y72.117 E6.14817
G1 X99.315 Y71.788 E6.38702
G1 X100.048 Y71.838 E6.4115
G1 X101.323 Y72.071 E6.45467
G1 X101.975 Y72.262 E6.4773
G1 X103.035 Y72.698 E6.51548
G1 X103.588 Y72.991 E6.53633
G1 X104.498 Y73.591 E6.57263
G1 X104.947 Y73.947 E6.59172
G1 X105.76 Y74.719 E6.62907
G1 X106.192 Y75.223 E6.65118
G1 X106.936 Y76.295 E6.69464
G1 X107.193 Y76.735 E6.71162
G1 X107.307 Y77.002 E6.72129
G1 X107.875 Y78.509 E6.77493
G1 X108.039 Y79.114 E6.79581
G1 X108.148 Y79.76 E6.81764
G1 X108.192 Y80.24 E6.83369
G1 X108.214 Y81.403 E6.87244
G1 X108.15 Y82.108 E6.89602
G1 X107.85 Y83.591 E6.94642
G1 X107.647 Y84.239 E6.96904
G1 X107.278 Y85.091 E6.99997
G1 X107.009 Y85.588 E7.01879
G1 X106.409 Y86.498 E7.0551
G1 X106.107 Y86.889 E7.07156
G1 X105.512 Y87.547 E7.10111
G1 X105.13 Y87.906 E7.11857
G1 X104.468 Y88.435 E7.1468
G1 X104.09 Y88.696 E7.1621
G1 X99.011 Y91.69 E7.35849
G1 X94.456 Y94.694 E7.54024
G1 X90.051 Y97.97 E7.72311
G1 X85.866 Y101.465 E7.90473
G1 X81.148 Y105.892 E8.12024
G1 X80.766 Y106.199 E8.13656
G1 X79.647 Y106.969 E8.18181
G1 X79.206 Y107.224 E8.19878
G1 X78.936 Y107.339 E8.20855
G1 X77.476 Y107.881 E8.26043
G1 X76.884 Y108.039 E8.28084
G1 X76.236 Y108.148 E8.30273
G1 X75.759 Y108.192 E8.31868
G1 X74.598 Y108.214 E8.35737
G1 X73.952 Y108.162 E8.37895
G1 X72.677 Y107.929 E8.42213
G1 X72.022 Y107.737 E8.44486
G1 X70.955 Y107.297 E8.48331
G1 X70.403 Y107.004 E8.50413
G1 X69.499 Y106.407 E8.54021
G1 X69.11 Y106.106 E8.5566
G1 X68.453 Y105.512 E8.5861
G1 X68.101 Y105.138 E8.60321
G1 X67.586 Y104.498 E8.63057
G1 X67.303 Y104.085 E8.64725
G1 X63.684 Y97.812 E8.88849
G1 X60.685 Y93.229 E9.07093
G1 X57.423 Y88.809 E9.25391
G1 X55.709 Y86.672 E9.34516
G1 X55.443 Y86.286 E9.36078
G1 X54.718 Y85.053 E9.40843
G1 X54.436 Y84.431 E9.43117
G1 X54.08 Y83.36 E9.46877
G1 X53.956 Y82.859 E9.48596
G1 X53.843 Y82.167 E9.50932
G1 X53.801 Y81.687 E9.52537
G1 X53.786 Y80.571 E9.56255
G1 X53.839 Y79.94 E9.58364
G1 X54.072 Y78.671 E9.62662
G1 X54.264 Y78.021 E9.64919
G1 X54.699 Y76.964 E9.68727
G1 X54.991 Y76.412 E9.70807
G1 X55.591 Y75.502 E9.74438
G1 X55.895 Y75.109 E9.76093
G1 X56.49 Y74.452 E9.79045
G1 X57.01 Y73.989 E9.81364
G1 F600 E8.06364
;MESH:
G0 F2625 X60.38 Y74.875
G0 X60.993 Y76.171
G0 X63.505 Y75.875
G0 X63.514 Y75.776
;TYPE:WALL-INNER
G1 F600 E9.81364
G1 F900 X64.018 Y75.851 E9.83062
G1 X64.526 Y75.978 E9.84806
G1 X65.014 Y76.153 E9.86533
G1 X65.473 Y76.37 E9.88224
G1 X65.917 Y76.636 E9.89948
G1 X66.331 Y76.943 E9.91665
G1 X66.712 Y77.288 E9.93377
G1 X67.057 Y77.669 E9.95089
G1 X67.364 Y78.083 E9.96806
G1 X67.63 Y78.527 E9.9853
G1 X67.847 Y78.986 E10.00221
G1 X68.022 Y79.474 E10.01948
G1 X68.151 Y79.986 E10.03707
G1 X68.223 Y80.485 E10.05387
G1 X68.249 Y81 E10.07104
G1 X68.223 Y81.515 E10.08822
G1 X68.151 Y82.014 E10.10501
G1 X68.022 Y82.526 E10.1226
G1 X67.847 Y83.014 E10.13987
G1 X67.63 Y83.473 E10.15678
G1 X67.364 Y83.917 E10.17402
G1 X67.057 Y84.331 E10.19119
G1 X66.712 Y84.712 E10.20831
G1 X66.331 Y85.057 E10.22543
G1 X65.917 Y85.364 E10.2426
G1 X65.473 Y85.63 E10.25984
G1 X65.014 Y85.847 E10.27675
G1 X64.526 Y86.022 E10.29402
G1 X64.018 Y86.149 E10.31147
G1 X63.514 Y86.224 E10.32844
G1 X63 Y86.249 E10.34558
G1 X62.486 Y86.224 E10.36272
G1 X61.982 Y86.149 E10.3797
G1 X61.474 Y86.022 E10.39714
G1 X60.986 Y85.847 E10.41441
G1 X60.527 Y85.63 E10.43132
G1 X60.083 Y85.364 E10.44856
G1 X59.669 Y85.057 E10.46573
G1 X59.288 Y84.712 E10.48285
G1 X58.941 Y84.329 E10.50007
G1 X58.63 Y83.906 E10.51755
G1 X58.362 Y83.455 E10.53503
G1 X58.143 Y82.986 E10.55227
G1 X57.972 Y82.503 E10.56934
G1 X57.848 Y82.004 E10.58647
G1 X57.776 Y81.498 E10.60349
G1 X57.751 Y81 E10.6201
G1 X57.777 Y80.485 E10.63728
G1 X57.849 Y79.986 E10.65407
G1 X57.978 Y79.474 E10.67166
G1 X58.153 Y78.986 E10.68893
G1 X58.37 Y78.527 E10.70584
G1 X58.636 Y78.083 E10.72308
G1 X58.943 Y77.669 E10.74025
G1 X59.288 Y77.288 E10.75737
G1 X59.669 Y76.943 E10.77449
G1 X60.083 Y76.636 E10.79166
G1 X60.527 Y76.37 E10.8089
G1 X60.986 Y76.153 E10.82581
G1 X61.474 Y75.978 E10.84308
G1 X61.982 Y75.851 E10.86052
G1 X62.486 Y75.776 E10.8775
G1 X63 Y75.751 E10.89464
G1 X63.514 Y75.776 E10.91178
G0 F2625 X63.505 Y75.875
G0 X61.287 Y80.443
G0 X61.138 Y81
G0 X61.238 Y81
G1 F900 X61.325 Y81.545 E10.93017
G1 X61.574 Y82.035 E10.94847
G1 X61.965 Y82.426 E10.96689
G1 X62.456 Y82.676 E10.98525
G1 X63 Y82.761 E11.00359
G1 X63.544 Y82.676 E11.02193
G1 X64.035 Y82.426 E11.04028
G1 X64.426 Y82.035 E11.0587
G1 X64.676 Y81.544 E11.07705
G1 X64.761 Y81 E11.09539
G1 X64.676 Y80.456 E11.11374
G1 X64.426 Y79.965 E11.13209
G1 X64.035 Y79.574 E11.15051
G1 X63.545 Y79.325 E11.16882
G1 X63 Y79.238 E11.1872
G1 X62.455 Y79.325 E11.20558
G1 X61.965 Y79.574 E11.22389
G1 X61.574 Y79.965 E11.24231
G1 X61.325 Y80.455 E11.26062
G1 X61.238 Y81 E11.27901
G0 F2625 X61.138 Y81
G0 X61.287 Y80.443
G0 X61.542 Y79.942
G0 X61.942 Y79.542
G0 X62.346 Y79.336
G0 X63.094 Y79.153
G0 X63 Y79.744
;TYPE:WALL-OUTER
G1 F900 X62.612 Y79.806 E11.29209
G1 X62.262 Y79.984 E11.30517
G1 X61.984 Y80.262 E11.31827
G1 X61.806 Y80.612 E11.33135
G1 X61.744 Y81 E11.34444
G1 X61.806 Y81.388 E11.35753
G1 X61.984 Y81.738 E11.37061
G1 X62.262 Y82.016 E11.3837
G1 X62.612 Y82.194 E11.39678
G1 X63 Y82.255 E11.40986
G1 X63.388 Y82.194 E11.42295
G1 X63.738 Y82.016 E11.43603
G1 X64.016 Y81.738 E11.44912
G1 X64.194 Y81.388 E11.4622
G1 X64.255 Y81 E11.47529
G1 X64.194 Y80.612 E11.48837
G1 X64.016 Y80.262 E11.50145
G1 X63.738 Y79.984 E11.51455
G1 X63.388 Y79.806 E11.52763
G1 X63 Y79.744 E11.54071
G0 F2625 X62.753 Y79.783
G0 X62.659 Y79.192
G0 X63.505 Y75.875
G0 X63.57 Y75.279
G1 F900 X64.113 Y75.359 E11.559
G1 X64.675 Y75.5 E11.5783
G1 X65.199 Y75.688 E11.59684
G1 X65.712 Y75.93 E11.61574
G1 X66.191 Y76.217 E11.63434
G1 X66.65 Y76.558 E11.65338
G1 X67.066 Y76.934 E11.67206
G1 X67.442 Y77.35 E11.69074
G1 X67.783 Y77.809 E11.70979
G1 X68.07 Y78.288 E11.72839
G1 X68.312 Y78.801 E11.74728
G1 X68.5 Y79.325 E11.76583
G1 X68.642 Y79.89 E11.78523
G1 X68.721 Y80.43 E11.80341
G1 X68.749 Y81 E11.82242
G1 X68.721 Y81.57 E11.84143
G1 X68.642 Y82.11 E11.85961
G1 X68.5 Y82.675 E11.87901
G1 X68.312 Y83.199 E11.89756
G1 X68.07 Y83.712 E11.91645
G1 X67.783 Y84.191 E11.93505
G1 X67.442 Y84.65 E11.9541
G1 X67.066 Y85.066 E11.97278
G1 X66.65 Y85.442 E11.99146
G1 X66.191 Y85.783 E12.0105
G1 X65.712 Y86.07 E12.0291
G1 X65.199 Y86.312 E12.048
G1 X64.675 Y86.5 E12.06654
G1 X64.113 Y86.641 E12.08584
G1 X63.57 Y86.721 E12.10413
G1 X63 Y86.749 E12.12314
G1 X62.43 Y86.721 E12.14215
G1 X61.887 Y86.641 E12.16043
G1 X61.325 Y86.5 E12.17973
G1 X60.801 Y86.312 E12.19827
G1 X60.288 Y86.07 E12.21717
G1 X59.809 Y85.783 E12.23577
G1 X59.35 Y85.442 E12.25482
G1 X58.934 Y85.066 E12.27349
G1 X58.554 Y84.646 E12.29236
G1 X58.212 Y84.182 E12.31156
G1 X57.922 Y83.694 E12.33047
G1 X57.682 Y83.181 E12.34934
G1 X57.493 Y82.648 E12.36817
G1 X57.356 Y82.095 E12.38715
G1 X57.278 Y81.55 E12.40549
G1 X57.251 Y81 E12.42383
G1 X57.279 Y80.43 E12.44284
G1 X57.358 Y79.89 E12.46102
G1 X57.5 Y79.325 E12.48043
G1 X57.688 Y78.801 E12.49897
G1 X57.93 Y78.288 E12.51787
G1 X58.217 Y77.809 E12.53647
G1 X58.558 Y77.35 E12.55551
G1 X58.934 Y76.934 E12.57419
G1 X59.35 Y76.558 E12.59287
G1 X59.809 Y76.217 E12.61192
G1 X60.288 Y75.93 E12.63052
G1 X60.801 Y75.688 E12.64941
G1 X61.325 Y75.5 E12.66796
G1 X61.887 Y75.359 E12.68726
G1 X62.43 Y75.279 E12.70554
G1 X63 Y75.251 E12.72455
G1 X63.57 Y75.279 E12.74356
G0 F2625 X63.817 Y75.315
G0 X63.729 Y75.909
G0 X63.479 Y76.266
;TYPE:SKIN
G1 F900 X63.909 Y76.329 E12.75804
G1 X64.394 Y76.45 E12.77469
G1 X64.821 Y76.604 E12.78981
G1 X65.25 Y76.807 E12.80562
G1 X65.635 Y77.037 E12.82055
G1 X66.024 Y77.326 E12.8367
G1 X66.365 Y77.635 E12.85203
G1 X66.674 Y77.976 E12.86735
G1 X66.965 Y78.368 E12.88362
G1 X67.193 Y78.75 E12.89843
G1 X67.395 Y79.177 E12.91417
G1 X67.552 Y79.614 E12.92964
G1 X67.67 Y80.08 E12.94565
G1 X67.734 Y80.522 E12.96053
G1 X67.757 Y81 E12.97647
G1 X67.734 Y81.473 E12.99224
G1 X67.67 Y81.92 E13.00728
G1 X67.552 Y82.386 E13.0233
G1 X67.396 Y82.821 E13.03869
G1 X67.193 Y83.25 E13.0545
G1 X66.965 Y83.632 E13.06932
G1 X66.674 Y84.024 E13.08558
G1 X66.365 Y84.365 E13.10091
G1 X66.024 Y84.674 E13.11624
G1 X65.635 Y84.963 E13.13238
G1 X65.25 Y85.193 E13.14732
G1 X64.821 Y85.396 E13.16313
G1 X64.394 Y85.55 E13.17825
G1 X63.909 Y85.671 E13.1949
G1 X63.479 Y85.734 E13.20937
G1 X63 Y85.757 E13.22535
G1 X62.521 Y85.734 E13.24132
G1 X62.091 Y85.671 E13.2558
G1 X61.606 Y85.55 E13.27245
G1 X61.179 Y85.396 E13.28757
G1 X60.75 Y85.193 E13.30338
G1 X60.365 Y84.963 E13.31832
G1 X59.976 Y84.674 E13.33446
G1 X59.635 Y84.365 E13.34979
G1 X59.316 Y84.014 E13.36559
G1 X59.044 Y83.643 E13.38091
G1 X58.799 Y83.232 E13.39685
G1 X58.594 Y82.792 E13.41302
G1 X58.443 Y82.366 E13.42808
G1 X58.331 Y81.915 E13.44355
G1 X58.264 Y81.449 E13.45924
G1 X58.243 Y81 E13.47421
G1 X58.266 Y80.522 E13.49015
G1 X58.33 Y80.08 E13.50503
G1 X58.448 Y79.614 E13.52104
G1 X58.605 Y79.177 E13.53651
G1 X58.807 Y78.75 E13.55224
G1 X59.035 Y78.368 E13.56706
G1 X59.326 Y77.976 E13.58332
G1 X59.635 Y77.635 E13.59865
G1 X59.976 Y77.326 E13.61398
G1 X60.365 Y77.037 E13.63012
G1 X60.75 Y76.807 E13.64506
G1 X61.179 Y76.604 E13.66087
G1 X61.606 Y76.45 E13.67599
G1 X62.091 Y76.329 E13.69264
G1 X62.521 Y76.266 E13.70712
G1 X63 Y76.243 E13.72309
G1 X63.479 Y76.266 E13.73907
G0 F2625 X63 Y78.742
G1 F900 X62.302 Y78.853 E13.76261
G1 X61.673 Y79.172 E13.7861
G1 X61.172 Y79.673 E13.8097
G1 X60.853 Y80.302 E13.8332
G1 X60.742 Y81 E13.85674
G1 X60.853 Y81.698 E13.88028
G1 X61.172 Y82.327 E13.90377
G1 X61.673 Y82.828 E13.92737
G1 X62.303 Y83.148 E13.95091
G1 X63 Y83.257 E13.97441
G1 X63.697 Y83.148 E13.99791
G1 X64.327 Y82.828 E14.02145
G1 X64.828 Y82.327 E14.04505
