;Generated by Cura LulzBot Edition GCodeWriter Version: 3.6.25
;FLAVOR:Marlin
;TIME:3139
;Filament used: 1.74542m
;Layer height: 0.25
;Generated with Cura_SteamEngine 3.6.25-9
M82 ;absolute extrusion mode
;This G-Code has been generated specifically for the LulzBot Mini 2 with SE 0.5mm Tool Head
M73 P0                  ; clear GLCD progress bar
M75 					; Start GLCD Print Timer
G26 					; clear potential 'probe fail' condition
M107 					; disable fans
M420 S0                 ; disable leveling matrix
G90 					; absolute positioning
M82 					; set extruder to absolute mode
G92 E0 					; set extruder position to 0
M140 S60.0 ; start bed heating up
G28 					; home all axes
G0 X0 Y187 Z156 F200 			; move away from endstops
M117 Mini 2 Wiping...			; progress indicator message on LCD
M109 R140 	; soften filament before retraction
G1 E-15 F75 				; retract filament
M109 R140 	; wait for extruder to reach wiping temp
G1 X45 Y176 F11520 			; move above wiper pad
G1 Z0 F1200 				; push nozzle into wiper
G1 X45 Y178 Z-.5 F4000		; wiping
G1 X55 Y176 Z-.5 F4000		; wiping
G1 X45 Y177 Z0 F4000		; wiping
G1 X55 Y176 F4000		; wiping
G1 X45 Y178 F4000		; wiping
G1 X55 Y176 F4000		; wiping
G1 X45 Y178 F4000		; wiping
G1 X55 Y176 F4000		; wiping
G1 X60 Y178 F4000		; wiping
G1 X80 Y176 F4000		; wiping
G1 X60 Y178 F4000		; wiping
G1 X80 Y176 F4000		; wiping
G1 X60 Y178 F4000		; wiping
G1 X90 Y176 F4000		; wiping
G1 X80 Y178 F4000		; wiping
G1 X100 Y176 F4000		; wiping
G1 X80 Y178 F4000		; wiping
G1 X100 Y176 F4000		; wiping
G1 X80 Y178 F4000		; wiping
G1 X100 Y176 F4000		; wiping
G1 X110 Y178 F4000		; wiping
G1 X100 Y176 F4000		; wiping
G1 X110 Y178 F4000		; wiping
G1 X100 Y176 F4000		; wiping
G1 X110 Y178 F4000		; wiping
G1 X115 Y176 Z-0.5 F1000	; wiping
G1 Z10					; raise extruder
G28 X0 Y0				; home X and Y
M109 R140	; wait for extruder to reach probe temp
M204 S300				; set probing acceleration
G29					; start auto-leveling sequence
M420 S1                     ; enable leveling matrix
M425 Z			     		; use measured Z backlash for compensation
M425 Z F0		     		; turn off measured Z backlash compensation. (if activated in the quality settings, this command will automatically be ignored)
M204 S2000				; restore standard acceleration
G1 X5 Y15 Z10 F5000			; move up off last probe point
G4 S1					; pause
M400					; wait for moves to finish
M117 Heating...				; progress indicator message on LCD
M109 R210 ; wait for extruder to reach initial printing temp
M190 R60.0 ; wait for bed to reach printing temp
G1 Z2 E0 F75				; prime tiny bit of filment into the nozzle
M117 Mini 2 Printing...		; progress indicator message on LCD

M221 S100 T0
G92 E0
G1 F600 E-1.75
;LAYER_COUNT:60
;LAYER:0
M425 F1.0
M107
G0 F2625 X62.881 Y46.441 Z0.425
;TYPE:SKIRT
G1 Z0.350 F7800.000
G1 E-2.00000 F2400.00000
G92 E0
G1 X-2.094 Y-23.032 F7800.000
G1 E2.00000 F2400.00000
G1 X9.312 Y-24.069 E2.35437 F1800.000
G1 X10.174 Y-24.117 E2.38109
G1 X10.826 Y-24.117 E2.40126
G1 X11.414 Y-24.088 E2.41948 F1800.000
G1 X12.055 Y-24.025 E2.43939
G1 X12.638 Y-23.939 E2.45763
G1 X13.280 Y-23.811 E2.47790
G1 X13.851 Y-23.668 E2.49611
G1 X14.482 Y-23.477 E2.51649
G1 X15.036 Y-23.278 E2.53470
G1 X15.623 Y-23.035 E2.55437
G1 X16.155 Y-22.784 E2.57257
G1 X16.736 Y-22.473 E2.59297
G1 X17.241 Y-22.170 E2.61120
G1 X17.781 Y-21.809 E2.63127
G1 X18.254 Y-21.458 E2.64950
G1 X18.748 Y-21.053 E2.66928
G1 X19.185 Y-20.658 E2.68751
G1 X19.658 Y-20.185 E2.70818
G1 X20.053 Y-19.748 E2.72641
G1 X20.458 Y-19.254 E2.74618
G1 X20.809 Y-18.781 E2.76441
G1 X21.170 Y-18.242 E2.78449
G1 X21.473 Y-17.736 E2.80271
G1 X21.783 Y-17.155 E2.82312
G1 X22.035 Y-16.623 E2.84133
G1 X22.278 Y-16.036 E2.86099
G1 X22.477 Y-15.482 E2.87920
G1 X22.668 Y-14.851 E2.89958
G1 X22.811 Y-14.280 E2.91779
G1 X22.939 Y-13.638 E2.93807
G1 X23.025 Y-13.055 E2.95630
G1 X23.088 Y-12.414 E2.97621
G1 X24.118 Y10.199 E3.67663
G1 X24.117 Y10.826 E3.69601
G1 X24.088 Y11.414 E3.71425
G1 X24.025 Y12.055 E3.73416
G1 X23.939 Y12.638 E3.75239
G1 X23.811 Y13.280 E3.77267
G1 X23.668 Y13.852 E3.79089
G1 X23.477 Y14.482 E3.81126
G1 X23.278 Y15.036 E3.82947
G1 X23.035 Y15.623 E3.84914
G1 X22.783 Y16.155 E3.86734
G1 X22.473 Y16.736 E3.88773
G1 X22.170 Y17.241 E3.90597
G1 X21.809 Y17.781 E3.92605
G1 X21.458 Y18.254 E3.94427
G1 X21.053 Y18.748 E3.96405
G1 X20.658 Y19.185 E3.98228
G1 X20.185 Y19.658 E4.00295
G1 X19.748 Y20.053 E4.02118
G1 X19.254 Y20.458 E4.04096
G1 X18.781 Y20.809 E4.05919
G1 X18.242 Y21.170 E4.07926
G1 X17.737 Y21.473 E4.09748
G1 X17.155 Y21.784 E4.11789
G1 X16.623 Y22.035 E4.13610
G1 X16.036 Y22.278 E4.15576
G1 X15.482 Y22.477 E4.17397
G1 X14.852 Y22.668 E4.19435
G1 X14.280 Y22.811 E4.21256
G1 X13.638 Y22.939 E4.23284
G1 X13.055 Y23.025 E4.25107
G1 X12.414 Y23.088 E4.27098
G1 X-10.199 Y24.118 E4.97140
G1 X-10.826 Y24.117 E4.99078
G1 X-11.414 Y24.088 E5.00902
G1 X-12.055 Y24.025 E5.02893
G1 X-12.638 Y23.939 E5.04717
G1 X-13.280 Y23.811 E5.06744
G1 X-13.851 Y23.668 E5.08565
G1 X-14.482 Y23.477 E5.10603
G1 X-15.036 Y23.278 E5.12424
G1 X-15.623 Y23.035 E5.14391
G1 X-16.155 Y22.783 E5.16211
G1 X-16.736 Y22.473 E5.18251
G1 X-17.241 Y22.170 E5.20074
G1 X-17.781 Y21.809 E5.22080
G1 X-18.254 Y21.458 E5.23904
G1 X-18.748 Y21.053 E5.25882
G1 X-19.185 Y20.658 E5.27705
G1 X-19.658 Y20.185 E5.29772
G1 X-20.053 Y19.748 E5.31595
G1 X-20.458 Y19.254 E5.33573
G1 X-20.809 Y18.781 E5.35396
G1 X-21.170 Y18.241 E5.37403
G1 X-21.473 Y17.736 E5.39226
G1 X-21.784 Y17.155 E5.41266
G1 X-22.035 Y16.623 E5.43086
G1 X-22.278 Y16.036 E5.45053
G1 X-22.477 Y15.482 E5.46874
G1 X-22.668 Y14.851 E5.48912
G1 X-22.811 Y14.280 E5.50734
G1 X-22.939 Y13.638 E5.52760
G1 X-23.025 Y13.055 E5.54584
G1 X-23.088 Y12.414 E5.56575
G1 X-24.117 Y-9.185 E6.23482
G1 X-24.117 Y-9.826 E6.25467
G1 X-24.088 Y-10.414 E6.27288
G1 X-24.025 Y-11.055 E6.29280
G1 X-23.939 Y-11.638 E6.31103
G1 X-23.811 Y-12.280 E6.33130
G1 X-23.668 Y-12.852 E6.34953
G1 X-23.477 Y-13.481 E6.36988
G1 X-23.278 Y-14.036 E6.38811
G1 X-23.035 Y-14.623 E6.40777
G1 X-22.783 Y-15.155 E6.42598
G1 X-22.473 Y-15.736 E6.44638
G1 X-22.170 Y-16.241 E6.46460
G1 X-21.809 Y-16.781 E6.48468
G1 X-21.458 Y-17.254 E6.50290
G1 X-21.053 Y-17.748 E6.52269
G1 X-20.658 Y-18.185 E6.54091
G1 X-20.185 Y-18.658 E6.56158
G1 X-19.748 Y-19.053 E6.57981
G1 X-19.254 Y-19.458 E6.59959
G1 X-18.781 Y-19.809 E6.61782
G1 X-18.241 Y-20.170 E6.63790
G1 X-17.736 Y-20.473 E6.65612
G1 X-17.155 Y-20.784 E6.67652
G1 X-16.623 Y-21.035 E6.69472
G1 X-16.036 Y-21.278 E6.71438
G1 X-15.482 Y-21.477 E6.73260
G1 X-14.852 Y-21.668 E6.75298
G1 X-14.280 Y-21.811 E6.77120
G1 X-13.638 Y-21.939 E6.79147
G1 X-12.688 Y-22.069 E6.82114
G1 X-2.168 Y-23.025 E7.14796
G1 E5.14796 F2400.00000
G92 E0
G1 X-11.312 Y9.008 F7800.000
G1 E2.00000 F2400.00000
G1 X-10.524 Y8.880 E2.02470 F1800.000
G1 X-9.697 Y9.003 E2.05056
G1 X-8.959 Y9.378 E2.07619
G1 X-8.378 Y9.959 E2.10160
G1 X-8.006 Y10.690 E2.12698
G1 X-7.878 Y11.500 E2.15235
G1 X-8.006 Y12.310 E2.17772
G1 X-8.378 Y13.041 E2.20309
G1 X-8.942 Y13.604 E2.22776
G1 X-9.679 Y13.992 E2.25354
G1 X-10.500 Y14.122 E2.27924
G1 X-11.310 Y13.994 E2.30461
G1 X-12.041 Y13.622 E2.32998
G1 X-12.622 Y13.041 E2.35540
G1 X-12.992 Y12.312 E2.38069
G1 X-13.123 Y11.500 E2.40615
G1 X-12.992 Y10.688 E2.43161
G1 X-12.622 Y9.959 E2.45690
G1 X-12.041 Y9.378 E2.48232
G1 X-11.379 Y9.042 E2.50529
G1 X-11.116 Y9.609 F7800.000
G1 X-10.520 Y9.513 E2.52397 F1800.000
G1 X-9.890 Y9.606 E2.54368
G1 X-9.331 Y9.890 E2.56309
G1 X-8.890 Y10.331 E2.58237
G1 X-8.608 Y10.885 E2.60161
G1 X-8.511 Y11.500 E2.62087
G1 X-8.608 Y12.115 E2.64012
G1 X-8.890 Y12.669 E2.65937
G1 X-9.317 Y13.095 E2.67803
G1 X-9.879 Y13.391 E2.69768
G1 X-10.500 Y13.489 E2.71713
G1 X-11.115 Y13.392 E2.73639
G1 X-11.669 Y13.110 E2.75563
G1 X-12.110 Y12.669 E2.77492
G1 X-12.391 Y12.116 E2.79412
G1 X-12.490 Y11.500 E2.81342
G1 X-12.391 Y10.884 E2.83273
G1 X-12.110 Y10.331 E2.85193
G1 X-11.669 Y9.890 E2.87121
G1 X-11.183 Y9.643 E2.88809
G1 X-10.920 Y10.210 F7800.000
G1 X-10.516 Y10.145 E2.90075 F1800.000
G1 X-10.082 Y10.209 E2.91431
G1 X-9.703 Y10.402 E2.92749
G1 X-9.402 Y10.703 E2.94064
G1 X-9.210 Y11.081 E2.95376
G1 X-9.144 Y11.500 E2.96689
G1 X-9.210 Y11.919 E2.98003
G1 X-9.402 Y12.297 E2.99315
G1 X-9.691 Y12.586 E3.00580
G1 X-10.078 Y12.790 E3.01933
G1 X-10.500 Y12.856 E3.03254
G1 X-10.919 Y12.790 E3.04567
G1 X-11.297 Y12.598 E3.05879
G1 X-11.598 Y12.297 E3.07194
G1 X-11.790 Y11.920 E3.08504
G1 X-11.858 Y11.500 E3.09820
G1 X-11.790 Y11.080 E3.11136
G1 X-11.598 Y10.703 E3.12446
G1 X-11.297 Y10.402 E3.13761
G1 X-10.987 Y10.244 E3.14839
G1 X-10.815 Y9.815 F7800.000
G1 X-11.947 Y7.352 F7800.000
G1 X-11.776 Y7.291 E3.15400 F1800.000
G1 X-11.359 Y7.186 E3.16730
G1 X-10.932 Y7.123 E3.18067
G1 X-10.500 Y7.102 E3.19404
G1 X-10.083 Y7.122 E3.20694
G1 X-9.639 Y7.187 E3.22085 F1800.000
G1 X-9.224 Y7.291 E3.23408
G1 X-8.817 Y7.437 E3.24745
G1 X-8.427 Y7.621 E3.26081
G1 X-8.057 Y7.842 E3.27414
G1 X-7.709 Y8.101 E3.28754
G1 X-7.390 Y8.390 E3.30088
G1 X-7.101 Y8.709 E3.31422
G1 X-6.842 Y9.057 E3.32762
G1 X-6.621 Y9.427 E3.34095
G1 X-6.437 Y9.817 E3.35431
G1 X-6.291 Y10.224 E3.36768
G1 X-6.186 Y10.641 E3.38098
G1 X-6.123 Y11.068 E3.39436
G1 X-6.102 Y11.500 E3.40772
G1 X-6.123 Y11.931 E3.42109
G1 X-6.186 Y12.359 E3.43447
G1 X-6.291 Y12.776 E3.44777
G1 X-6.437 Y13.183 E3.46114
G1 X-6.621 Y13.573 E3.47450
G1 X-6.842 Y13.943 E3.48782
G1 X-7.101 Y14.291 E3.50123
G1 X-7.390 Y14.610 E3.51457
G1 X-7.709 Y14.899 E3.52790
G1 X-8.057 Y15.158 E3.54131
G1 X-8.427 Y15.379 E3.55464
G1 X-8.817 Y15.563 E3.56799
G1 X-9.224 Y15.709 E3.58137
G1 X-9.641 Y15.814 E3.59467
G1 X-10.069 Y15.877 E3.60804
G1 X-10.500 Y15.898 E3.62141
G1 X-10.931 Y15.877 E3.63478
G1 X-11.359 Y15.814 E3.64815
G1 X-11.776 Y15.709 E3.66145
G1 X-12.183 Y15.563 E3.67482
G1 X-12.573 Y15.379 E3.68818
G1 X-12.943 Y15.158 E3.70151
G1 X-13.291 Y14.899 E3.71492
G1 X-13.610 Y14.610 E3.72825
G1 X-13.899 Y14.291 E3.74159
G1 X-14.158 Y13.943 E3.75499
G1 X-14.379 Y13.573 E3.76832
G1 X-14.563 Y13.183 E3.78168
G1 X-14.709 Y12.776 E3.79505
G1 X-14.814 Y12.359 E3.80835
G1 X-14.877 Y11.931 E3.82173
G1 X-14.898 Y11.500 E3.83509
G1 X-14.877 Y11.069 E3.84846
G1 X-14.814 Y10.641 E3.86184
G1 X-14.709 Y10.224 E3.87514
G1 X-14.563 Y9.817 E3.88851
G1 X-14.379 Y9.427 E3.90187
G1 X-14.158 Y9.057 E3.91519
G1 X-13.899 Y8.709 E3.92860
G1 X-13.610 Y8.390 E3.94194
G1 X-13.291 Y8.101 E3.95527
G1 X-12.943 Y7.842 E3.96868
G1 X-12.573 Y7.621 E3.98201
G1 X-12.017 Y7.377 E4.00079
G1 X-12.158 Y6.764 F7800.000
G1 X-11.958 Y6.692 E4.00736 F1800.000
G1 X-11.481 Y6.572 E4.02258
G1 X-10.993 Y6.500 E4.03785
G1 X-10.500 Y6.476 E4.05311
G1 X-10.023 Y6.500 E4.06789
G1 X-9.518 Y6.573 E4.08369 F1800.000
G1 X-9.042 Y6.692 E4.09887
G1 X-8.578 Y6.859 E4.11413
G1 X-8.132 Y7.069 E4.12938
G1 X-7.710 Y7.322 E4.14462
G1 X-7.313 Y7.617 E4.15991
G1 X-6.947 Y7.947 E4.17515
G1 X-6.617 Y8.313 E4.19040
G1 X-6.322 Y8.710 E4.20569
G1 X-6.069 Y9.132 E4.22093
G1 X-5.859 Y9.578 E4.23618
G1 X-5.692 Y10.042 E4.25144
G1 X-5.572 Y10.519 E4.26666
G1 X-5.500 Y11.007 E4.28193
G1 X-5.476 Y11.500 E4.29719
G1 X-5.500 Y11.993 E4.31245
G1 X-5.572 Y12.481 E4.32773
G1 X-5.692 Y12.958 E4.34295
G1 X-5.859 Y13.422 E4.35821
G1 X-6.069 Y13.868 E4.37346
G1 X-6.322 Y14.290 E4.38870
G1 X-6.617 Y14.687 E4.40399
G1 X-6.947 Y15.053 E4.41923
G1 X-7.313 Y15.383 E4.43448
G1 X-7.710 Y15.678 E4.44977
G1 X-8.132 Y15.931 E4.46501
G1 X-8.578 Y16.141 E4.48026
G1 X-9.042 Y16.308 E4.49552
G1 X-9.519 Y16.428 E4.51074
G1 X-10.007 Y16.500 E4.52601
G1 X-10.500 Y16.524 E4.54127
G1 X-10.993 Y16.500 E4.55654
G1 X-11.481 Y16.428 E4.57181
G1 X-11.958 Y16.308 E4.58703
G1 X-12.422 Y16.141 E4.60229
G1 X-12.868 Y15.931 E4.61754
G1 X-13.290 Y15.678 E4.63278
G1 X-13.687 Y15.383 E4.64807
G1 X-14.053 Y15.053 E4.66331
G1 X-14.383 Y14.687 E4.67856
G1 X-14.678 Y14.290 E4.69385
G1 X-14.931 Y13.868 E4.70909
G1 X-15.141 Y13.422 E4.72434
G1 X-15.308 Y12.958 E4.73960
G1 X-15.428 Y12.481 E4.75482
G1 X-15.500 Y11.993 E4.77009
G1 X-15.524 Y11.500 E4.78536
G1 X-15.500 Y11.007 E4.80062
G1 X-15.428 Y10.519 E4.81589
G1 X-15.308 Y10.042 E4.83111
G1 X-15.141 Y9.578 E4.84637
G1 X-14.931 Y9.132 E4.86162
G1 X-14.678 Y8.710 E4.87686
G1 X-14.383 Y8.313 E4.89215
G1 X-14.053 Y7.947 E4.90740
G1 X-13.687 Y7.617 E4.92264
G1 X-13.290 Y7.322 E4.93793
G1 X-12.868 Y7.069 E4.95317
G1 X-12.422 Y6.859 E4.96842
G1 X-12.228 Y6.789 E4.97479
G1 X-12.369 Y6.176 F7800.000
G1 X-12.140 Y6.093 E4.98232 F1800.000
G1 X-11.603 Y5.959 E4.99946
G1 X-11.054 Y5.878 E5.01663
G1 X-10.500 Y5.850 E5.03379
G1 X-9.963 Y5.877 E5.05043
G1 X-9.397 Y5.959 E5.06813 F1800.000
G1 X-8.860 Y6.093 E5.08525
G1 X-8.338 Y6.281 E5.10240
G1 X-7.837 Y6.517 E5.11955
G1 X-7.362 Y6.802 E5.13670
G1 X-6.916 Y7.133 E5.15387
G1 X-6.505 Y7.505 E5.17102
G1 X-6.133 Y7.916 E5.18818
G1 X-5.802 Y8.362 E5.20535
G1 X-5.517 Y8.837 E5.22250
G1 X-5.281 Y9.338 E5.23964
G1 X-5.093 Y9.860 E5.25680
G1 X-4.959 Y10.397 E5.27394
G1 X-4.878 Y10.946 E5.29111
G1 X-4.850 Y11.500 E5.30826
G1 X-4.878 Y12.054 E5.32542
G1 X-4.959 Y12.603 E5.34259
G1 X-5.093 Y13.140 E5.35973
G1 X-5.281 Y13.662 E5.37688
G1 X-5.517 Y14.163 E5.39402
G1 X-5.802 Y14.638 E5.41117
G1 X-6.133 Y15.084 E5.42834
G1 X-6.505 Y15.495 E5.44550
G1 X-6.916 Y15.867 E5.46266
G1 X-7.362 Y16.198 E5.47983
G1 X-7.837 Y16.483 E5.49698
G1 X-8.338 Y16.719 E5.51412
G1 X-8.860 Y16.907 E5.53128
G1 X-9.397 Y17.041 E5.54841
G1 X-9.946 Y17.122 E5.56558
G1 X-10.500 Y17.150 E5.58274
G1 X-11.054 Y17.122 E5.59989
G1 X-11.603 Y17.041 E5.61707
G1 X-12.140 Y16.907 E5.63420
G1 X-12.662 Y16.719 E5.65136
G1 X-13.163 Y16.483 E5.66850
G1 X-13.638 Y16.198 E5.68565
G1 X-14.084 Y15.867 E5.70282
G1 X-14.495 Y15.495 E5.71998
G1 X-14.867 Y15.084 E5.73713
G1 X-15.198 Y14.638 E5.75430
G1 X-15.483 Y14.163 E5.77146
G1 X-15.719 Y13.662 E5.78860
G1 X-15.907 Y13.140 E5.80575
G1 X-16.041 Y12.603 E5.82289
G1 X-16.122 Y12.054 E5.84006
G1 X-16.150 Y11.500 E5.85722
G1 X-16.122 Y10.946 E5.87437
G1 X-16.041 Y10.397 E5.89154
G1 X-15.907 Y9.860 E5.90868
G1 X-15.719 Y9.338 E5.92583
G1 X-15.483 Y8.837 E5.94298
G1 X-15.198 Y8.362 E5.96013
G1 X-14.867 Y7.916 E5.97730
G1 X-14.495 Y7.505 E5.99445
G1 X-14.084 Y7.133 E6.01161
G1 X-13.638 Y6.802 E6.02878
G1 X-13.163 Y6.517 E6.04593
G1 X-12.662 Y6.281 E6.06307
G1 X-12.440 Y6.201 E6.07038
G1 X-12.183 Y6.333 F7800.000
G1 X-9.889 Y7.553 F7800.000
G1 X-6.553 Y10.890 E6.22095 F1800.000
G1 X-7.589 Y10.766 E6.25423
G1 X-6.492 Y11.862 E6.30370
G1 X-6.619 Y12.646 E6.32906
G1 X-7.549 Y11.717 E6.37101
G1 X-7.712 Y12.465 E6.39545
G1 X-6.867 Y13.310 E6.43359
G1 X-7.205 Y13.884 E6.45483
G1 X-8.019 Y13.069 E6.49160
G1 X-8.440 Y13.560 E6.51223
G1 X-7.633 Y14.367 E6.54864
G1 X-8.116 Y14.795 E6.56924
G1 X-8.935 Y13.976 E6.60622
G1 X-9.533 Y14.290 E6.62776
G1 X-8.690 Y15.133 E6.66581
G1 X-9.354 Y15.381 E6.68842
G1 X-10.283 Y14.451 E6.73037
G1 X-11.234 Y14.411 E6.76075
G1 X-10.138 Y15.508 E6.81023
G1 X-11.110 Y15.447 E6.84131
G1 X-14.447 Y12.110 E6.99190
G1 X-14.508 Y11.138 E7.02298
G1 X-13.412 Y12.234 E7.07245
G1 X-13.452 Y11.282 E7.10286
G1 X-14.381 Y10.354 E7.14477
G1 X-14.133 Y9.690 E7.16738
G1 X-13.288 Y10.535 E7.20552
G1 X-12.981 Y9.931 E7.22714
G1 X-13.795 Y9.116 E7.26392
G1 X-13.367 Y8.633 E7.28452
G1 X-12.560 Y9.440 E7.32093
G1 X-12.069 Y9.019 E7.34156
G1 X-12.884 Y8.205 E7.37833
G1 X-12.310 Y7.867 E7.39957
G1 X-11.465 Y8.712 E7.43771
G1 X-10.718 Y8.548 E7.46213
G1 X-11.646 Y7.619 E7.50404
G1 X-10.862 Y7.492 E7.52940
G1 X-9.765 Y8.589 E7.57889
G1 X-8.171 Y8.360 F7800.000
G1 X-7.360 Y9.171 E7.61547 F1800.000
G1 E5.61547 F2400.00000
G92 E0
G1 X-12.829 Y14.640 F7800.000
G1 E2.00000 F2400.00000
G1 X-13.640 Y13.829 E2.03658 F1800.000
G1 E0.03658 F2400.00000
G92 E0
G1 X-11.500 Y-6.878 F7800.000
G1 E2.00000 F2400.00000
G1 X-12.310 Y-7.006 E2.02537 F1800.000
G1 X-13.041 Y-7.378 E2.05075
G1 X-13.622 Y-7.959 E2.07616
G1 X-13.992 Y-8.688 E2.10146
G1 X-14.123 Y-9.500 E2.12691
G1 X-13.992 Y-10.312 E2.15237
G1 X-13.622 Y-11.041 E2.17766
G1 X-13.041 Y-11.622 E2.20308
G1 X-12.312 Y-11.992 E2.22838
G1 X-11.524 Y-12.120 E2.25307 F1800.000
G1 X-10.697 Y-11.997 E2.27893
G1 X-9.959 Y-11.622 E2.30456
G1 X-9.378 Y-11.041 E2.32998
